X: 38029
T: Spicy, The
R: jig
M: 6/8
K: Dmixolydian
|:AG|FAA AFD|GBB cBA|FAA AFD|GEE EAG|
FAA AFD|GBB cBA|FAA GEE|FDD D2G:|
|:AG|FAA dAF|GBB dBG|FAA dAF|GEE EAG|
FAA dAF|GBB dBG|FAA GEE|FDD D2A:|
|:Fdd Fdd|Gdd Gdd|Fdd Fdd|E2F GFE|
Fdd Fdd|Gdd Gdd|FAA GEE|FDD D2:|

